src/images/messenger.svg

<svg height="512pt" viewBox="0 0 512 512" width="512pt" xmlns="http://www.w3.org/2000/svg"><path d="m241.574219 210.210938-82.953125 87.828124 75.492187-41.421874 39.445313 41.421874 82.488281-87.828124-74.65625 40.695312zm0 0"/><path d="m256 0c-141.363281 0-256 114.636719-256 256s114.636719 256 256 256 256-114.636719 256-256-114.636719-256-256-256zm2 393.035156c-15.847656 0-31.144531-2.238281-45.535156-6.382812l-51.625 29.347656v-55.210938c-34.578125-26.3125-56.660156-66.386718-56.660156-111.269531 0-79.265625 68.867187-143.519531 153.820312-143.519531 84.957031 0 153.820312 64.253906 153.820312 143.519531 0 79.257813-68.863281 143.515625-153.820312 143.515625zm0 0"/></svg>

<svg width="512" height="512" viewBox="0 0 512 512" fill="none" xmlns="http://www.w3.org/2000/svg">
<path d="M241.574 210.211L158.621 298.039L234.113 256.617L273.559 298.039L356.047 210.211L281.391 250.906L241.574 210.211Z" fill="#100F0F" fill-opacity="0.81"/>
<path d="M256 0C114.637 0 0 114.637 0 256C0 397.363 114.637 512 256 512C397.363 512 512 397.363 512 256C512 114.637 397.363 0 256 0ZM258 393.035C242.152 393.035 226.855 390.797 212.465 386.652L160.84 416V360.789C126.262 334.477 104.18 294.402 104.18 249.52C104.18 170.254 173.047 106 258 106C342.957 106 411.82 170.254 411.82 249.52C411.82 328.777 342.957 393.035 258 393.035V393.035Z" fill="#100F0F" fill-opacity="0.81"/>
</svg>
